X: 11
T:Duncan  MacQuarrie Reel
M:C
L:1/8
C:Duncan  MacQuarrie
S:Doug MacPhee
R:reel
A:Cape Breton
B:Silver Apple News
Q:300
K:A
"A" eA A/2/A/2A eAce|"D"fefg abaf|"A"eA A/2/A/2A eAce|"D"faec "B"BABc|
"A" eA A/2/A/2A eAce|"D"fefg agab|"A"c'2 b2 "D"agfe|"F#"faec "D"BABc:|
"A"eA A/2/A/2A a2 ae|"D"fefg abaf|"A"eA A/2/A/2A a2 ae|"D"faec "B"BABc|
"A"eA A/2/A/2A a2 ae|"D"fefg agab|"A"c'2 b2 "D"agfe|"F#"faec "D"BABc:|
